icon-themes/breeze_svg/cmd/sc_starshapes.doorplate.svg

<svg viewBox="0 0 16 16" xmlns="http://www.w3.org/2000/svg">/&gt;<path d="m5 2c0 1.6568542-1.3431458 3-3 3v6c1.6568542 0 3 1.343146 3 3h5.25c0-1.656854 1.343146-3 3-3 .259463 0 .509876.055267.75.117188v-6.117188c-1.656854 0-3-1.3431458-3-3z" fill="#4d4d4d"/></svg>

<svg xmlns="http://www.w3.org/2000/svg" viewBox="0 0 16 16">
     />
 <path 
     style="fill:#4d4d4d" 
     d="M 5 2 C 5 3.6568542 3.6568542 5 2 5 L 2 11 C 3.6568542 11 5 12.343146 5 14 L 10.25 14 C 10.25 12.343146 11.593146 11 13.25 11 C 13.509463 11 13.759876 11.055267 14 11.117188 L 14 5 C 12.343146 5 11 3.6568542 11 2 L 5 2 z "
     />
 </svg>
